22x22/apps/sc_ide.svg

<svg xmlns="http://www.w3.org/2000/svg" width="22" height="22"><circle style="opacity:.2" cx="11" cy="11.5" r="10"/><circle style="fill:#575757" cx="11" cy="11" r="10"/><circle style="opacity:.2" cx="11" cy="11.5" r="8"/><path style="opacity:.1;fill:#f4f4f7" d="M11 1A10 10 0 0 0 1 11a10 10 0 0 0 .01.291A10 10 0 0 1 11 1.5a10 10 0 0 1 9.99 9.709A10 10 0 0 0 21 11 10 10 0 0 0 11 1z"/><circle style="fill:#6e6e6e" cx="11" cy="11" r="8"/><circle style="opacity:.2" cx="11" cy="11.5" r="6"/><circle style="fill:#818181" cx="11" cy="11" r="6"/><circle style="opacity:.2" cx="11" cy="11.5" r="4"/><circle style="fill:#a4a4a4" cx="11" cy="11" r="4"/><circle style="opacity:.2" cx="11" cy="11.5" r="2"/><circle style="fill:#f4f4f7" cx="11" cy="11" r="2"/><path style="opacity:.1;fill:#f4f4f7" d="M11 3a8 8 0 0 0-8 8 8 8 0 0 0 .01.29A8 8 0 0 1 11 3.5a8 8 0 0 1 7.99 7.71A8 8 0 0 0 19 11a8 8 0 0 0-8-8z"/><path style="opacity:.1;fill:#f4f4f7" d="M11 5a6 6 0 0 0-6 6 6 6 0 0 0 .01.297A6 6 0 0 1 11 5.5a6 6 0 0 1 5.99 5.703A6 6 0 0 0 17 11a6 6 0 0 0-6-6z"/><path style="opacity:.1;fill:#f4f4f7" d="M11 7a4 4 0 0 0-4 4 4 4 0 0 0 .01.288A4 4 0 0 1 11 7.5a4 4 0 0 1 3.99 3.712A4 4 0 0 0 15 11a4 4 0 0 0-4-4z"/></svg>

<svg xmlns="http://www.w3.org/2000/svg" width="22" height="22" version="1.1">
 <circle style="opacity:0.2" cx="11" cy="11.5" r="10"/>
 <circle style="fill:#575757" cx="11" cy="11" r="10"/>
 <circle style="opacity:0.2" cx="11" cy="11.5" r="8"/>
 <path style="opacity:0.1;fill:#f4f4f7" d="M 11,1 A 10,10 0 0 0 1,11 10,10 0 0 0 1.01075,11.291 10,10 0 0 1 11,1.5 10,10 0 0 1 20.9895,11.209 10,10 0 0 0 21,11 10,10 0 0 0 11,1 Z"/>
 <circle style="fill:#6e6e6e" cx="11" cy="11" r="8"/>
 <circle style="opacity:0.2" cx="11" cy="11.5" r="6"/>
 <circle style="fill:#818181" cx="11" cy="11" r="6"/>
 <circle style="opacity:0.2" cx="11" cy="11.5" r="4"/>
 <circle style="fill:#a4a4a4" cx="11" cy="11" r="4"/>
 <circle style="opacity:0.2" cx="11" cy="11.5" r="2"/>
 <circle style="fill:#f4f4f7" cx="11" cy="11" r="2"/>
 <path style="opacity:0.1;fill:#f4f4f7" d="M 11,3 A 8,8 0 0 0 3,11 8,8 0 0 0 3.0107422,11.290039 8,8 0 0 1 11,3.5 8,8 0 0 1 18.989258,11.209961 8,8 0 0 0 19,11 8,8 0 0 0 11,3 Z"/>
 <path style="opacity:0.1;fill:#f4f4f7" d="M 11,5 A 6,6 0 0 0 5,11 6,6 0 0 0 5.00977,11.296875 6,6 0 0 1 11,5.5 6,6 0 0 1 16.990234,11.203125 6,6 0 0 0 17,11 6,6 0 0 0 11,5 Z"/>
 <path style="opacity:0.1;fill:#f4f4f7" d="M 11,7 A 4,4 0 0 0 7,11 4,4 0 0 0 7.01074,11.288086 4,4 0 0 1 11,7.5 4,4 0 0 1 14.989258,11.211914 4,4 0 0 0 15,11 4,4 0 0 0 11,7 Z"/>
</svg>
